X:1
T:He’s Able and Willing
T:He’s Able and Willing
T:Charles Austin Miles
T:Charles Austin Miles, 1910
T:Public Domain Courtesy of the Cyber Hymnal™
T:Public Domain Courtesy of the Cyber Hymnal™
C:Charles Austin Miles
Z:Public Domain
Z:Courtesy of the Cyber Hymnal™
%%score ( 1 2 ) ( 3 4 )
L:1/8
Q:1/4=100
M:6/8
K:F
V:1 treble 
V:2 treble 
V:3 bass 
V:4 bass 
V:1
 [CFAc] | [CFAc]2 [CFAc] [CFAc]2 [CFAc] | [FAc]2 [FAc] [FAc]2 [cf] | [cf]3 [c_e]3 | %4
w: 1.~A|sin- ner more wretch-|ed than I, There|could not|
w: 2.~His|pow- er no lim-|it can know, His|grace is|
w: 3.~He’s|a- ble and will-|ing to go O’er|mount- ains|
 [ce]3- [ce]2 [CEGB] | [CEGB]2 [CEGB] | [CEGB]2 [CEGB] | ([EGBc]2 [EGBc] [EGc]2) [Ge] | %8
w: be; * ’Till|Jesus the|mighty, came|nigh, * * To|
w: mine; * His|love He~is|willing to|show, * * ’Tis|
w: steep, * Or|down~in the|valley so|low, * * Or|
 [ce]3 [Bc]3 | [Ac]3- [Ac]2 [CFAc] | [CFAc]2 [CFAc] [CFAc]2 [CFAc] | ([FAc]2 [FAc] [FAc]2) [Ae] | %12
w: set me|free, * I|opened my heart~to His|call, * * His|
w: love di-|vine; * His|mercy is offered to-|day, * * So|
w: storm- y|deep: * If|willing His bidding to|do, * * His|
 [Af]3 [Ad]3 | [Bd]3- [Bd]2 [Bd] | [Gc]>[Gc][Gc] [Fc]2 [Ec] | ([Fc] [Af]4) [Fd] | [Fc]3 [EB]3 | %17
w: own to|be, * And|when I sur- ren- dered|all, * My|Lord saved|
w: full, so|free, * He’ll|nev- er turn you a-|way, * For|He saved|
w: own you’ll|be, * I|know He can keep you|true, * For|He keeps|
 [CA]3- [CA]2 ||"^Refrain" [Ac] | [cf]>[df]c [FA][GB][Ac] | [GB-]3 [DB]3 | [Dc] (c>c c c2) | %22
w: me. *|He’s|a- ble and will- ing to|save, A-|ble, will- * * *|
w: me. *|||||
w: me. *|||||
 [Fc] (c>ccc)[Ac] | [cf]>[df]c [FA][GB][Fc] | ([FB]3 !fermata![^Gd]2) [Gd] | [Ac]3 [EB]3 | %26
w: ing, He’s * * * a-|ble and will- ing to save,|For * He|saved me.|
w: ||||
w: ||||
 [FA]3- [FA]3 |] %27
w: |
w: |
w: |
V:2
 x | x6 | x6 | x6 | x6 | x3 | x3 | x6 | x6 | x6 | x6 | x6 | x6 | x6 | x6 | x6 | x6 | x5 || x | %19
 x2 c x3 | x6 | x G2- G3 | x A3- A2 | x2 c x3 | x6 | x6 | x6 |] %27
V:3
 C, | (C,F,)G, A,>G,F, | C3- C2 [F,A,] | [F,A,]3 [^F,A,]3 | [G,B,]3- [G,B,]2 C, | C,G,A, | %6
w: ~|~ * ~ ~ ~ ~|~ * ~|~ ~|~ * ~|~ ~ ~|
 B,>A,G, | D3- D2 [C,B,] | A,3 G,3 | [F,A,]3- [F,A,]2 C, | C,F,G, A,>G,F, | C3- C2 [E,^C] | %12
w: ~ ~ ~|~ * ~|~ ~|~ * ~|~ ~ ~ ~ ~ ~|~ * ~|
 [D,D]3 [^F,C]3 | [G,B,]3- [G,B,]2 [F,B,] | [E,B,]>[E,B,][E,B,] [F,A,]2 [C,G,] | %15
w: ~ ~|~ * ~|~ ~ ~ ~ ~|
 (A, C2- [F,C]2) [B,,B,] | [C,A,]3 [C,G,]3 | [F,,F,]3- [F,,F,]2 || F, | %19
w: ~ * * ~|~ ~||~|
 [F,A,]>[F,B,][F,A,] F,[E,G,][_E,F,] | [D,G,]3- [D,G,]3 | [C,G,][E,G,]>[E,G,] [E,G,] [E,G,]2 | %22
w: ~ ~ ~ ~ ~ ~|~ *|~ ~ ~ ~ A-|
 [F,A,][F,A,]>F, [F,A,][F,A,][F,A,] | [F,A,]>[F,B,][F,A,] [C,F,][C,E,][A,,_E,] | %24
w: ble and will- ing, a- ble|and will- ing * * *|
 ([B,,D,]3 !fermata![=B,,F,]2) [B,,F,] | [C,F,]3 C,3 | [F,,C,]3- [F,,C,]2 x |] %27
w: |||
V:4
 x | x6 | x6 | x6 | x6 | x3 | x3 | x6 | (C,2 D,) (E,2 C,) | x6 | x6 | x6 | x6 | x6 | x6 | F,3- x3 | %16
 x6 | x5 || F, | x3 F, x2 | x6 | x6 | x6 | x6 | x6 | x3 C,3 | x6 |] %27

